X: 62
T: Calliope House
M: 6/8
L: 1/8
C:Dave Richardson (Boys of the Lough)
R: jig
K:Dmaj
"D"dAA fAA|"A"eAA "D"fed|"G"Bee e2d|"D"eff "G"edB|
"D"ABA A2F|A2B d2e|1 f2f fed|"A"e3 e2A:|2 "D"f2f "A"edc|"D"d3 "A7"efg||
|:"D"a2a faa|"A"eaa "D"def|"G"g2g "D"fgf|"A"efe "D"dBA|
"D" ABA A2F|A2B d2e|1 f2f fed|"A"e3 efg:|2"D" f2f "A"edc|"D" d3 d3|]


